X:1
T:Light Of The Seven
T: The Tower (Intermediate Piano Solo)
T: Game Of Thrones OST Season 6 Episode 10
T: Composed by Ramin Djawadi Piano arrangement by Nicolas Del Gallo Full playthrough and more at https://www.youtube.com/c/NDGmusic If you want to donate, please check out my Patreon ☺ https://www.patreon.com/ndg 
C:Ramin Djawadi
%%score { ( 1 5 7 ) | ( 2 3 4 6 ) }
L:1/8
Q:1/4=55
M:4/4
K:C
V:1 treble nm="Piano" snm="Pno."
V:5 treble 
V:7 treble 
V:2 bass 
V:3 bass 
V:4 bass 
V:6 bass 
V:1
 [Gg]8- | [GAga]8 | [C,C]2 [D,D]2 [_E,_E]4 | [Gg]2 [cc']2 [dd']4- | [dd']4 [Cc]2 [Dd]2 | [G,G]8 | %6
 [dd']8 | [G,G]2 [D,D]2 [_E,_E]4 | [Gg]2 [cc']2 [dd']4- | [dd']8 | [_E_e]8 |[M:6/4] [dd']12 | %12
[M:4/4] [_B_eg_b]8 | [DG_Bd]8 | [D,F,A,D]8!8vb(!!8vb)! |[M:6/4] [D,D]12 |[M:4/4] [_B,_EG_B]8 | %17
 [DG_Bd]8 | [Cc]8 | [DAd]8 ||"_cresc." [D,D]2 [A,DFA]6 | [_E,D_E]2 [_B,EG_B]6 | %22
 [F,A,_EF]2 [DFAd]6 | [G,_B,DFG]2 [_EG_B_e]6 | [A,CFGA]2 [FAcf]6 | [_B,DA_B]2 [GBdg]6 | %26
 [C_E_Bc]2 [Ac_ega]6 ||[K:Bb]!ff! [G,B,DG]2 [DGBd]4 !4![Cc](3d/c/!1!!3![B,B]/ | [DFBd]8 | %29
 [CEGc]2 [Dd]2 [EGe]2 [Dd][Ee] | !fermata![Dd]8 || %31
!mf!"^Optional Ending\n\"The Tower\" soundtrack normally ends bar 31. I added a phrase from \"Goodbye Brother\" for extra joy and tears! \n" [B,DG]2 [Dd]4 c(3d/c/B/ | %32
 [Fd]4 [GBg]2 [Aa][Bb] |!>(! [cec']2 [Gg]2{/a} g2 [FAf]2 | [DBd]4 [DAd]4!>)! |!mp! [G,G]8- | %36
 !fermata![G,G]8 |] %37
V:2
 !arpeggio![C,,,C,,]8- | [C,,,C,,]8 | !arpeggio![C,,,C,,]8- | [C,,,C,,]8- | [C,,,C,,]8 | %5
 !arpeggio![C,,,C,,]8- | [C,,,C,,]8- | [C,,,C,,]6 [C,,,C,,]2 | [C,,,C,,]8- | [C,,,C,,]8 | %10
 [C,,,C,,]8 |[M:6/4] [C,,,C,,]12 |[M:4/4] [_E,,,_E,,]8 | [_E,,,_E,,]8 | [F,,,F,,]8 | %15
[M:6/4] [F,,,F,,]12 |[M:4/4] [_E,,,_E,,]8 | [_E,,,_E,,]8 | !arpeggio![_E,,_E,]8 | %19
 !arpeggio![D,,D,]8 || !arpeggio![D,,,D,,]8 | !arpeggio![_E,,,_E,,]8 | !arpeggio![F,,,F,,]8 | %23
 !arpeggio![G,,,G,,]8 | !arpeggio![A,,,A,,]8 | !arpeggio![_B,,,_B,,]8 | !arpeggio![C,,C,]8 || %27
[K:Bb] [G,,,G,,-]4 [G,,,G,,]4 | [B,,,B,,]2 B,,,6 | [C,,C,]3 C,, [C,,C,]4 | [D,,D,]8 || [G,,D,G,]8 | %32
 B,,F,CD [E,B,E]4 | [C,G,C]4 [B,,F,B,]2 [A,,F,A,]2 | [G,,D,G,]4 !arpeggio![D,,A,,^F,]4 | %35
 [G,,,G,,]2 D,4 C,B,, | G,,8 |] %37
V:3
 z2 C,2 C,2 C,2 | C,2 C,2 C,2 C,2 | z2 C,2 C,2 C,2 | C,2 C,2 C,2 C,2 | C,2 C,2 C,2 C,2 | %5
 z2 C,2 C,2 C,2 | C,2 C,2 C,2 C,2 | C,2 C,2 C,2 C,2 | z2 C,2 C,2 C,2 | C,2 C,2 C,2 C,2 | %10
 z2 C,2 C,2 C,2 |[M:6/4] z2 C,2 C,2 C,2 C,2 [C,C]2 |[M:4/4] z2 _E,2 E,2 E,2 | z2 _E,2 E,2 E,2 | %14
 z2 F,,2 F,,2 F,,2 |[M:6/4] F,,2 F,,2 F,,2 F,,2 F,,2 F,,2 |[M:4/4] z2 _E,2 E,2 E,2 | %17
 z2 _E,2 E,2 E,2 | x8 | x8 || x8 | x8 | x8 | x8 | x8 | x8 | x8 ||[K:Bb] x8 | x8 | x8 | x8 || x8 | %32
 x8 | x8 | x8 | x8 | x8 |] %37
V:4
 x8 | x8 | x8 | G,4 A,4- | A,4 z4 | z4 G,4- | [G,D]4 x4 | x8 | x4 G,4 | x8 | x8 |[M:6/4] x12 | %12
[M:4/4] x8 | x8 | x8 |[M:6/4] x12 |[M:4/4] x8 | x8 | x8 | x8 || x8 | x8 | x8 | x8 | x8 | x8 | x8 || %27
[K:Bb] x8 | x8 | x8 | x8 || x8 | x8 | x8 | x8 | x8 | x8 |] %37
V:5
 x8 | x8 | x8 | x8 | x8 | z2 [Dd]2 [Gg]2 [Bb]2 | x8 | z4 !arpeggio![aa']4 | x8 | z4 [Dd]2 [_E_e]2 | %10
 z2 !arpeggio![ff'a']6 |[M:6/4] z8 [Gg]2 [Fcfa]2 |[M:4/4] z2 [_E,_E]2 [G,G]2 [Cc]2 | %13
 z4 [G,G]2 [A,A]2 | z4!8vb(! [F,,F,]2 [A,,A,]2!8vb)! |[M:6/4] z8 [DFAd]2 [A,A]D | %16
[M:4/4] z2 [_E,_E]2 [G,G]2 [Cc]2 | x8 | z2 [_e_e']2 [gg']2 [c'c'']2 | x8 || x8 | x8 | x8 | x8 | %24
 x8 | x8 | x8 ||[K:Bb] x8 | x8 | x8 | x8 || x8 | x8 | x8 | x8 | x8 | x8 |] %37
V:6
 x8 | x8 | x8 | x8 | x8 | x8 | x4 C,,,4 | x8 | x8 | x8 | x8 |[M:6/4] x12 |[M:4/4] x8 | x8 | x8 | %15
[M:6/4] x12 |[M:4/4] x8 | x8 | x8 | x8 || x8 | x8 | x8 | x8 | x8 | x8 | x8 ||[K:Bb] x8 | x8 | x8 | %30
 x8 || x8 | x8 | x8 | x8 | x8 | x8 |] %37
V:7
 x8 | x8 | x8 | x8 | x8 | x8 | x8 | x8 | x8 | x8 | z4 [Gg]2 [Bb]2 |[M:6/4] x12 |[M:4/4] x8 | x8 | %14
 x4!8vb(! x4!8vb)! |[M:6/4] x12 |[M:4/4] x8 | x8 | x8 | x8 || x8 | x8 | x8 | x8 | x8 | x8 | x8 || %27
[K:Bb] x8 | x8 | x8 | x8 || x8 | x8 | x8 | x8 | x8 | x8 |] %37

